X: 22847
T: Lark In The Morning, The
R: jig
M: 6/8
K: Dmajor
||A3 AFA|BGB BdB|AFA ABd|fed edB|
AFA AFA|BGB BAB|def afe|fdB BdB|
A3 Ad=c|BBB BdB|AAA AFA|fed edB|
AFA Ad=c|BGB BAB|def afe|fdB BAB||

